X: 1224
T: An Dro
R: reel
M: 4/4
K: Eminor
|:E2Bc B3G|A zAG FG{A}GF|EBBc B3G|AA GA F2FF:|
E2FG AzA2|F2GA BcB2|E2FG A2BA|G2E2 F2GF|
E2FG AzA2|F2GA BcB2|E2FG A2BA|G/F/E FG E2EE|

